X:243
T: Molihua
N: C0381
O: China,Hebei, Nanpi
S: IV, 71]
N: typisch fuer diese Provinz. Die Texte verschiedener Moli hua sind
N: gleich. Enthaelt Elemente der Lokaloper.
N: Saengerin Huang Bai am 28.4.87, wieder erkaeltet)
N: Vereinzelt Verzierungen, Glissandi. Nicht das beruehmte Stueck!
R: Xiaodiao, Shidiao, Molihua diao
M: 2/4
L: 1/16
K: D
B2^A2B2d2 | F2A2B2AB | d2A4Bd | A8 |
d2c2d2e2 | F2A2B2AB | d2A4Bd | A8 |
A2F2A4- | A2AAF2A2 | B3dB2A2 | B4F2F2 |
E2^D2E2E2 | F2A2F2E2 | D6EF | D8 |
F2FED2AF | E4E2D2 | E2^D2E2EF | A2F2A4 | d2FFA2A2 |
E3FE2ED | E2A,2B,4- | B,2z2
B2d2 | e6fe | d3ec2B2 | A2B2d2c2 | B2A2FABd | A6Bd | A6z2

@@@ Tune index: 6244
